X:1
T:Title
%%score { 1 | ( 2 3 ) }
L:1/8
Q:1/4=100
M:4/4
K:C
V:1 treble nm="Grand Piano"
V:2 bass 
V:3 bass 
V:1
 E2 E2 [EG]2 [CE]2 | [CF]2 [FA]2 [FA]2 [EG]2 | [Ec]2 E2 E2 DE | F2 E2 D4 | %4
w: Lowell~Mason * * *||||
 [EG]2 [EG]2 [Ge]2 [Ec]2 | [FA]2 [Fc]2 [FA]2 [EG]2 | [EG]2 [Ge]2 [B,Fd]2 [CEc]2 | %7
w: |||
 [CFA]2 [B,DG]2 [G,CE]4 |] %8
w: |
V:2
 [C,G,C]2 [C,G,C]2 [C,C]2 [C,G,]2 | [C,A,]2 [C,C]2 [C,C]2 [C,C]2 | [C,G,]2 [E,G,C]2 [G,C]2 B,C | %3
 [G,D]2 [G,C]2 [G,B,]4 | [C,G,]2 [C,G,]2 [C,C]2 [C,C]2 | [F,C]2 [F,A,]2 [C,C]2 [C,C]2 | %6
 [C,C]2 [C,C]2 G,,2 A,,2 | F,,2 G,,2 C,4 |] %8
V:3
 x8 | x8 | z4 z2 G,2 | x8 | x8 | x8 | x8 | x8 |] %8

